X:1
T:St. Victor, 76.76
T:St. Victor, 76.76
T:Richard Redhead (1820-1901)
T:Public Domain Courtesy of the Cyber Hymnal™
C:Richard Redhead (1820-1901)
Z:Public Domain
Z:Courtesy of the Cyber Hymnal™
%%score ( 1 2 ) ( 3 4 )
L:1/8
Q:1/4=110
M:4/4
K:G
V:1 treble 
V:2 treble 
V:3 bass 
V:4 bass 
V:1
 [B,D]2 | [DG]2 [DB]2 G2 [DF]2 | [^CE]4 D2 D2 | G2 [FA]2 [GB]2 [Dd]2 | [DA]6 [DB]2 | %5
 [Cc]2 [DB]2 [EA]2 [Fe]2 | [Gd]4 [Gd]2 D2 | [DE]2 [CG]2 [DG]2 [DF]2 | [DG]6 |] %9
V:2
 x2 | x4 (D^C) x2 | x4 D2 D2 | (EE) x6 | x8 | x8 | x6 D2 | x8 | x6 |] %9
V:3
 [G,,G,]2 | [G,B,]2 G,2 [E,G,]2 [D,A,]2 | A,2 G,2 [D,F,]2 F,2 | [B,,G,]2 [A,,C]2 [G,,B,]2 G,2 | %4
 [D,F,]6 G,2 | [E,G,]2 [D,G,]2 [C,G,]2 [C,A,]2 | [B,,D]4 [B,,D]2 [B,,G,]2 | %7
 [C,G,]2 [E,G,]2 [D,A,]2 [D,A,]2 | [G,B,]6 |] %9
V:4
 x2 | x2 G,2 x4 | A,,4 (D,C,) x2 | x6 (B,,C,) | x6 G,2 | x8 | x8 | x8 | x6 |] %9

